src/assets/images/hamburger.svg

<svg width="14" height="12" xmlns="http://www.w3.org/2000/svg">
  <path d="M0 7V5h14v2H0zm0 5v-2h14v2H0zM0 2V0h14v2H0z" fill="#fff" fill-rule="nonzero"/>
</svg>

<?xml version="1.0" encoding="UTF-8"?>
<svg width="14px" height="12px" viewBox="0 0 14 12" version="1.1" xmlns="http://www.w3.org/2000/svg" xmlns:xlink="http://www.w3.org/1999/xlink">
    <!-- Generator: Sketch 64 (93537) - https://sketch.com -->
    <title>hamburger</title>
    <desc>Created with Sketch.</desc>
    <g id="Page-1" stroke="none" stroke-width="1" fill="none" fill-rule="evenodd">
        <g id="hamburger" fill="#000000" fill-rule="nonzero">
            <path d="M0,7 L0,5 L14,5 L14,7 L0,7 Z M0,12 L0,10 L14,10 L14,12 L0,12 Z M0,2 L0,0 L14,0 L14,2 L0,2 Z" id="Shape"></path>
        </g>
    </g>
</svg>
